X: 3271
T: The DE'IL'S AWA WI' THE EXCISEMAN
%R: jig
B: James Kerr "Merry Melodies" v.3 p.30 #271
Z: 2016 John Chambers <jc:trillian.mit.edu>
M: 6/8
L: 1/8
K: G
uD |\
vG2vd ded | dcB ABc | d2G G2A | B3 d2D |\
GBd ded | dcB ABc | d2G G2A | B3 d2 :|
|: D |\
G2d d2d | c2B ABc | d2G G2A | B3 d2D |\
G2d d2d | c2B A2d | g2d dec | B3 G2 :|

%%sep 1 1 500
%%sep 1 1 500

